communes/5423.svg

<?xml version="1.0" encoding="UTF-8"?>
<svg version="1.0" viewBox="0 0 603 763" xmlns="http://www.w3.org/2000/svg" xmlns:cc="http://creativecommons.org/ns#" xmlns:dc="http://purl.org/dc/elements/1.1/" xmlns:rdf="http://www.w3.org/1999/02/22-rdf-syntax-ns#" xmlns:xlink="http://www.w3.org/1999/xlink">
<metadata>
<rdf:RDF>
<cc:Work rdf:about="">
<dc:format>image/svg+xml</dc:format>
<dc:type rdf:resource="http://purl.org/dc/dcmitype/StillImage"/>
<dc:date>07-AUG-2006</dc:date>
<dc:creator>
<cc:Agent>
<dc:title>Jérôme BLUM (wagner51)</dc:title>
</cc:Agent>
</dc:creator>
<cc:license rdf:resource="http://creativecommons.org/licenses/GPL/2.0/"/>
<dc:coverage/>
<dc:description>Gabarit pour le Projet:Blasons de WIkipédia</dc:description>
<dc:subject>
<rdf:Bag>
<rdf:li>blason suisse modèle gabarit projet blasons</rdf:li>
</rdf:Bag>
</dc:subject>
<dc:language>fr</dc:language>
<dc:title>Gabrit d'un blason suisse</dc:title>
</cc:Work>
<cc:License rdf:about="http://creativecommons.org/licenses/GPL/2.0/">
<cc:permits rdf:resource="http://web.resource.org/cc/Reproduction"/>
<cc:permits rdf:resource="http://web.resource.org/cc/Distribution"/>
<cc:requires rdf:resource="http://web.resource.org/cc/Notice"/>
<cc:permits rdf:resource="http://web.resource.org/cc/DerivativeWorks"/>
<cc:requires rdf:resource="http://web.resource.org/cc/ShareAlike"/>
<cc:requires rdf:resource="http://web.resource.org/cc/SourceCode"/>
</cc:License>
</rdf:RDF>
</metadata>
<defs>
<radialGradient id="a" cx="858.04" cy="579.93" r="300" gradientTransform="matrix(1.215 1.5316e-24 1.4647e-23 1.2667 -839.19 -490.49)" gradientUnits="userSpaceOnUse">
<stop stop-color="#fff" stop-opacity=".31373" offset="0"/>
<stop stop-color="#fff" stop-opacity=".25098" offset=".19"/>
<stop stop-color="#6b6b6b" stop-opacity=".12549" offset=".6"/>
<stop stop-opacity=".12549" offset="1"/>
</radialGradient>
</defs>
<desc>Coat of Arms of Canton of Freiburg (Fribourg)</desc>
<g>
<path d="m1.5 1.5v458.87c0 166.31 134.31 301.13 300 301.13 165.69 0 300-134.82 300-301.13v-458.87h-600z" fill="#fcef3c"/>
</g>
<g>
<path d="m1.5 126.83 514.83 543.7c42.941-44.223 72.449-101.64 81.9-165.63l-476.73-503.4h-120v125.33z" fill="#e20909"/>
<path d="m598.23 504.9-476.73-503.4" fill="none" stroke="#000" stroke-width="3"/>
<path d="m1.5 126.83 514.83 543.7" fill="none" stroke="#000" stroke-width="3"/>
<path d="m194.06 109.86c-2.064-2.065-4.799-3.205-7.712-3.25v-0.474c0-6.151-5.004-11.156-11.155-11.156s-11.155 5.005-11.155 11.156v2.256h-43.178v-43.178h2.256c6.151 0 11.155-5.004 11.155-11.156s-5.004-11.156-11.155-11.156h-0.475c-0.097-6.068-5.047-10.979-11.138-10.979s-11.041 4.911-11.138 10.979h-0.474c-6.152 0-11.157 5.005-11.157 11.156s5.005 11.156 11.157 11.156h2.257v43.178h-43.18v-2.256c0-6.151-5.004-11.156-11.155-11.156-6.152 0-11.157 5.005-11.157 11.156v0.475c-6.068 0.097-10.979 5.047-10.979 11.138s4.911 11.041 10.979 11.138v0.474c0 6.151 5.005 11.156 11.157 11.156 6.151 0 11.155-5.005 11.155-11.156v-2.255h43.179v43.178h-2.257c-2.98 0-5.782 1.16-7.889 3.267s-3.268 4.909-3.268 7.889c0 6.151 5.005 11.155 11.157 11.155h0.474c0.097 6.068 5.047 10.979 11.138 10.979s11.041-4.911 11.138-10.979h0.475c6.151 0 11.155-5.004 11.155-11.155 0-2.981-1.161-5.783-3.268-7.889-2.108-2.106-4.91-3.267-7.889-3.267h-2.255v-43.178h43.178v2.255c0 6.151 5.004 11.156 11.156 11.156 6.151 0 11.155-5.005 11.155-11.156v-0.474c6.068-0.097 10.979-5.047 10.979-11.138v-2e-3c0-2.98-1.16-5.78-3.266-7.887z" fill="#fff" stroke="#000" stroke-linecap="round" stroke-width="3"/>
</g>
<g>
<path d="m1.5 1.5v458.87c0 166.31 134.31 301.13 300 301.13 165.69 0 300-134.82 300-301.13v-458.87h-600z" fill="url(#a)"/>
<path d="m1.5 1.5v458.87c0 166.31 134.31 301.13 300 301.13 165.69 0 300-134.82 300-301.13v-458.87h-600z" fill="none" stroke="#000" stroke-width="3"/>
</g>
</svg>

<?xml version="1.0" encoding="UTF-8" standalone="no"?>
<svg
   xmlns:dc="http://purl.org/dc/elements/1.1/"
   xmlns:cc="http://creativecommons.org/ns#"
   xmlns:rdf="http://www.w3.org/1999/02/22-rdf-syntax-ns#"
   xmlns:svg="http://www.w3.org/2000/svg"
   xmlns="http://www.w3.org/2000/svg"
   xmlns:xlink="http://www.w3.org/1999/xlink"
   xmlns:sodipodi="http://sodipodi.sourceforge.net/DTD/sodipodi-0.dtd"
   xmlns:inkscape="http://www.inkscape.org/namespaces/inkscape"
   height="763"
   width="603"
   version="1.0"
   id="svg20"
   sodipodi:version="0.32"
   inkscape:version="0.46"
   sodipodi:docname="Ballens-coat_of_arms.svg"
   sodipodi:docbase="C:\Documents and Settings\Steve\Bureau\Blason Villages Suisse pour Wikipédia (par Delta-9)"
   inkscape:output_extension="org.inkscape.output.svg.inkscape">
  <metadata
     id="metadata31">
    <rdf:RDF>
      <cc:Work
         rdf:about="">
        <dc:format>image/svg+xml</dc:format>
        <dc:type
           rdf:resource="http://purl.org/dc/dcmitype/StillImage" />
        <dc:date>07-AUG-2006</dc:date>
        <dc:creator>
          <cc:Agent>
            <dc:title>Jérôme BLUM (wagner51)</dc:title>
          </cc:Agent>
        </dc:creator>
        <cc:license
           rdf:resource="http://creativecommons.org/licenses/GPL/2.0/" />
        <dc:coverage />
        <dc:description>Gabarit pour le Projet:Blasons de WIkipédia</dc:description>
        <dc:subject>
          <rdf:Bag>
            <rdf:li>blason suisse modèle gabarit projet blasons</rdf:li>
          </rdf:Bag>
        </dc:subject>
        <dc:language>fr</dc:language>
        <dc:title>Gabrit d'un blason suisse</dc:title>
      </cc:Work>
      <cc:License
         rdf:about="http://creativecommons.org/licenses/GPL/2.0/">
        <cc:permits
           rdf:resource="http://web.resource.org/cc/Reproduction" />
        <cc:permits
           rdf:resource="http://web.resource.org/cc/Distribution" />
        <cc:requires
           rdf:resource="http://web.resource.org/cc/Notice" />
        <cc:permits
           rdf:resource="http://web.resource.org/cc/DerivativeWorks" />
        <cc:requires
           rdf:resource="http://web.resource.org/cc/ShareAlike" />
        <cc:requires
           rdf:resource="http://web.resource.org/cc/SourceCode" />
      </cc:License>
    </rdf:RDF>
  </metadata>
  <defs
     id="defs29"><inkscape:perspective
   sodipodi:type="inkscape:persp3d"
   inkscape:vp_x="0 : 381.5 : 1"
   inkscape:vp_y="0 : 1000 : 0"
   inkscape:vp_z="603 : 381.5 : 1"
   inkscape:persp3d-origin="301.5 : 254.33333 : 1"
   id="perspective28" />
<linearGradient
   id="linearGradient2893">
  <stop
     style="stop-color:#ffffff;stop-opacity:0.3137255;"
     offset="0"
     id="stop2895" />
  <stop
     id="stop2897"
     offset="0.19"
     style="stop-color:#ffffff;stop-opacity:0.25098041;" />
  <stop
     style="stop-color:#6b6b6b;stop-opacity:0.1254902;"
     offset="0.60000002"
     id="stop2901" />
  <stop
     style="stop-color:#000000;stop-opacity:0.1254902;"
     offset="1"
     id="stop2899" />
</linearGradient>
<linearGradient
   id="linearGradient2955">
  <stop
     style="stop-color:white;stop-opacity:0;"
     offset="0"
     id="stop2965" />
  <stop
     style="stop-color:black;stop-opacity:0.64583331;"
     offset="1"
     id="stop2959" />
</linearGradient>
<radialGradient
   inkscape:collect="always"
   xlink:href="#linearGradient2893"
   id="radialGradient3236"
   gradientUnits="userSpaceOnUse"
   gradientTransform="matrix(1.215027,1.531577e-24,1.464684e-23,1.266667,-839.1924,-490.4894)"
   cx="858.04236"
   cy="579.93323"
   fx="858.04236"
   fy="579.93323"
   r="300" />
<inkscape:perspective
   id="perspective2474"
   inkscape:persp3d-origin="297.63751 : 280.63 : 1"
   inkscape:vp_z="595.27502 : 420.94501 : 1"
   inkscape:vp_y="0 : 1000 : 0"
   inkscape:vp_x="0 : 420.94501 : 1"
   sodipodi:type="inkscape:persp3d" />

	
	

	

		
		
		
	</defs>
  <sodipodi:namedview
     inkscape:window-height="968"
     inkscape:window-width="1280"
     inkscape:pageshadow="2"
     inkscape:pageopacity="0.0"
     guidetolerance="10.0"
     gridtolerance="10.0"
     objecttolerance="10.0"
     borderopacity="1.0"
     bordercolor="#666666"
     pagecolor="#ffffff"
     id="base"
     inkscape:zoom="0.95380146"
     inkscape:cx="186.55155"
     inkscape:cy="379.04932"
     inkscape:window-x="1280"
     inkscape:window-y="22"
     inkscape:current-layer="layer2"
     showgrid="false"
     showguides="true"
     inkscape:guide-bbox="true">
    <sodipodi:guide
       orientation="horizontal"
       position="761.5"
       id="guide1885" />
    <sodipodi:guide
       orientation="vertical"
       position="1.5"
       id="guide1887" />
    <sodipodi:guide
       orientation="horizontal"
       position="1.5"
       id="guide1889" />
    <sodipodi:guide
       orientation="vertical"
       position="601.5"
       id="guide1891" />
    <sodipodi:guide
       orientation="vertical"
       position="301.50081"
       id="guide1893" />
  </sodipodi:namedview>
  <desc
     id="desc22">Coat of Arms of Canton of Freiburg (Fribourg)</desc>
  <g
     inkscape:groupmode="layer"
     id="layer1"
     inkscape:label="Fond écu"
     style="opacity:1"
     sodipodi:insensitive="true">
    <path
       d="M 1.5,1.5 L 1.5,460.37 C 1.5,626.681 135.814,761.501 301.5,761.501 C 467.188,761.501 601.5,626.681 601.5,460.37 L 601.5,1.5 L 1.5,1.5 z"
       id="path2507"
       style="opacity:1;fill:#fcef3c" />
  </g>
  <g
     inkscape:groupmode="layer"
     id="layer2"
     inkscape:label="Meubles"
     style="opacity:1;display:inline"
     sodipodi:insensitive="true">
    <path
       style="fill:#e20909"
       id="path2489"
       d="M 1.5,126.832 L 516.328,670.53 C 559.269,626.307 588.777,568.889 598.228,504.901 L 121.5,1.5 L 1.5,1.5 L 1.5,126.832 L 1.5,126.832 z" />
    <path
       style="fill:none;stroke:#000000;stroke-width:3"
       id="path2489_4_"
       d="M 598.228,504.901 L 121.5,1.5" />
    <path
       style="fill:none;stroke:#000000;stroke-width:3"
       id="path2489_3_"
       d="M 1.5,126.832 L 1.5,126.832 L 516.328,670.53" />
    <path
       id="path2467"
       d="M 194.062,109.863 C 191.998,107.798 189.263,106.658 186.35,106.613 C 186.35,106.405 186.35,106.139 186.35,106.139 C 186.35,99.988 181.346,94.983 175.195,94.983 C 169.044,94.983 164.04,99.988 164.04,106.139 C 164.04,106.139 164.04,107.435 164.04,108.395 L 120.862,108.395 L 120.862,65.217 C 121.822,65.217 123.118,65.217 123.118,65.217 C 129.269,65.217 134.273,60.213 134.273,54.061 C 134.273,47.909 129.269,42.905 123.118,42.905 C 123.118,42.905 122.851,42.905 122.643,42.905 C 122.546,36.837 117.596,31.926 111.505,31.926 C 105.414,31.926 100.464,36.837 100.367,42.905 C 100.159,42.905 99.893,42.905 99.893,42.905 C 93.741,42.905 88.736,47.91 88.736,54.061 C 88.736,60.212 93.741,65.217 99.893,65.217 C 99.893,65.217 101.189,65.217 102.15,65.217 L 102.15,108.395 L 58.97,108.395 C 58.97,107.435 58.97,106.139 58.97,106.139 C 58.97,99.988 53.966,94.983 47.815,94.983 C 41.663,94.983 36.658,99.988 36.658,106.139 C 36.658,106.139 36.658,106.405 36.658,106.614 C 30.59,106.711 25.679,111.661 25.679,117.752 C 25.679,123.843 30.59,128.793 36.658,128.89 C 36.658,129.098 36.658,129.364 36.658,129.364 C 36.658,135.515 41.663,140.52 47.815,140.52 C 53.966,140.52 58.97,135.515 58.97,129.364 C 58.97,129.364 58.97,128.069 58.97,127.109 L 102.149,127.109 L 102.149,170.287 C 101.189,170.287 99.892,170.287 99.892,170.287 C 96.912,170.287 94.11,171.447 92.003,173.554 C 89.896,175.661 88.735,178.463 88.735,181.443 C 88.735,187.594 93.74,192.598 99.892,192.598 C 99.892,192.598 100.158,192.598 100.366,192.598 C 100.463,198.666 105.413,203.577 111.504,203.577 C 117.595,203.577 122.545,198.666 122.642,192.598 C 122.85,192.598 123.117,192.598 123.117,192.598 C 129.268,192.598 134.272,187.594 134.272,181.443 C 134.272,178.462 133.111,175.66 131.004,173.554 C 128.896,171.448 126.094,170.287 123.115,170.287 C 123.115,170.287 121.82,170.287 120.86,170.287 L 120.86,127.109 L 164.038,127.109 C 164.038,128.069 164.038,129.364 164.038,129.364 C 164.038,135.515 169.042,140.52 175.194,140.52 C 181.345,140.52 186.349,135.515 186.349,129.364 C 186.349,129.364 186.349,129.098 186.349,128.89 C 192.417,128.793 197.328,123.843 197.328,117.752 L 197.328,117.75 C 197.328,114.77 196.168,111.97 194.062,109.863 z"
       style="fill:#ffffff;stroke:#000000;stroke-width:3;stroke-linecap:round" />
  </g>
  <g
     inkscape:groupmode="layer"
     id="layer3"
     inkscape:label="Reflet final"
     style="display:inline"
     sodipodi:insensitive="true">
    <path
       style="fill:url(#radialGradient3236);fill-opacity:1"
       d="M 1.5,1.5 L 1.5,460.3679 C 1.5,626.67854 135.81454,761.5 301.49993,761.5 C 467.1854,761.5 601.5,626.67854 601.5,460.3679 L 601.5,1.5 L 1.5,1.5 z "
       id="path2346" />
  </g>
  <g
     inkscape:groupmode="layer"
     id="layer4"
     inkscape:label="Contour final"
     style="display:inline"
     sodipodi:insensitive="true">
    <path
       style="fill:none;fill-opacity:1;stroke:#000000;stroke-width:3;stroke-miterlimit:4;stroke-dasharray:none;stroke-opacity:1"
       d="M 1.5,1.5 L 1.5,460.36794 C 1.5,626.67854 135.81454,761.5 301.49993,761.5 C 467.1854,761.5 601.5,626.67854 601.5,460.36794 L 601.5,1.5 L 1.5,1.5 z "
       id="path3239" />
  </g>
</svg>
